X:6
T:Springlek efter Perbj\"ors Erik Persson
R:polska K1
A:Lima, Dalarna
Z:hn-k1-6
M:3/4
K:D
A|A2 d2 fd|d2 B2 ge|fa gf ed|c2 ed Bc/B/|
A2 d2 fd|d2 B2 ge|fa gf ed|S(3cBc d3:|
|:f|f2 g2 b2-|b2 f2 ge|fa gf ed|c2 ed Bc/B/|
A2 g2 b2-|b2 f2 ge|fa gf ed|S(3cBc d3:|
